packages/components/src/telekom/icons/weather/heavy-sleet/default.svg

<?xml version="1.0" encoding="UTF-8"?>
<svg width="24px" height="24px" viewBox="0 0 24 24" version="1.1" xmlns="http://www.w3.org/2000/svg" xmlns:xlink="http://www.w3.org/1999/xlink">
    <title>icon/weather/heavy-sleet/default</title>
    <g id="icon/weather/heavy-sleet/default" stroke="none" stroke-width="1" fill="none" fill-rule="evenodd">
        <path d="M14.7475,18.4045 C14.8546111,18.3062778 15.018216,18.3767469 15.035692,18.507046 L15.035,18.5585 L14.4485,22.307 C14.32,23.1265 13.552,23.6865 12.7325,23.5585 C11.5334107,23.3709464 11.0563476,21.9267047 11.8558813,21.0611931 L11.95,20.9675 L14.7475,18.4045 Z M9.8505,14.2175 L11.1495,14.9675 L10.2645,16.5 L12,16.5 L12,18 L10.3335,18 L11.1495,19.4135 L9.8505,20.1635 L9,18.69 L8.1495,20.1635 L6.8505,19.4135 L7.6665,18 L6,18 L6,16.5 L7.7355,16.5 L6.8505,14.9675 L8.1495,14.2175 L9,15.6905 L9.8505,14.2175 Z M17.594,11.7095 C17.6854375,11.6259375 17.8239609,11.6836328 17.8424248,11.7928164 L17.8425,11.8425 L17.1905,16.0095 C17.052,16.8975 16.2195,17.5045 15.332,17.3655 C14.0314483,17.1622586 13.5153627,15.5937759 14.3858953,14.6568746 L14.4845,14.559 L17.594,11.7095 Z M13.5115,0.5645 C16.7275,0.5645 19.5605,2.5685 20.661,5.584 C22.548,6.578 23.75,8.555 23.75,10.7115 C23.75,13.6935 21.498,16.1545 18.6165,16.4655 L18.6465625,16.35425 L18.6465625,16.35425 L18.6725,16.2415 L18.8815,14.9055 C20.803,14.495 22.25,12.771 22.25,10.7115 C22.25,9.10358696 21.3487902,7.62971172 19.9366892,6.89854397 L19.741,6.8035 L19.438,6.6655 L19.337,6.348 C18.5215,3.786 16.1805,2.0645 13.512,2.0645 C12.0916875,2.0645 10.7223516,2.56503711 9.62481738,3.47918201 L9.409,3.6675 L9.0805,3.9685 L8.6585,3.823 C8.319,3.706 7.97,3.6465 7.622,3.6465 C6.488,3.6465 5.4895,4.2425 4.9175,5.1405 C4.45338235,5.86897059 4.39709862,6.56106747 4.41152524,7.05253745 L4.442,7.5505 L3.9765,7.76 C2.624,8.3685 1.75,9.725 1.75,11.2155 C1.75,12.88254 2.8255072,14.298444 4.31208486,14.8009871 L4.5,14.859 L4.5,16.401 C2.082,15.9295 0.25,13.785 0.25,11.2155 C0.25,9.3035 1.282,7.5495 2.917,6.6175 C3.0565,4.128 5.1135,2.146 7.6215,2.146 C7.9905,2.146 8.3585,2.191 8.7215,2.2795 C10.0785,1.1705 11.7635,0.5645 13.5115,0.5645 Z" id="Shape" fill="#262626" fill-rule="nonzero"></path>
    </g>
</svg>

<svg width="24" height="24" xmlns="http://www.w3.org/2000/svg"><path d="M14.748 18.404a.173.173 0 01.288.103l-.001.051-.587 3.749a1.502 1.502 0 01-1.716 1.252c-1.199-.188-1.676-1.632-.876-2.498l.094-.093 2.798-2.564zM9.85 14.217l1.298.75-.884 1.533H12V18h-1.666l.816 1.413-1.3.75L9 18.69l-.85 1.473-1.3-.75L7.668 18H6v-1.5h1.736l-.885-1.533 1.298-.75L9 15.69l.85-1.473zm7.743-2.508a.15.15 0 01.248.084v.05l-.651 4.166a1.626 1.626 0 01-1.859 1.357c-1.3-.204-1.817-1.772-.946-2.71l.099-.097 3.109-2.85zM13.511.566a7.596 7.596 0 017.15 5.019 5.805 5.805 0 013.089 5.127c0 2.982-2.252 5.443-5.134 5.754l.03-.11.026-.114.21-1.335a4.285 4.285 0 003.368-4.195A4.3 4.3 0 0019.937 6.9l-.196-.096-.303-.138-.101-.317c-.816-2.562-3.157-4.284-5.825-4.284-1.42 0-2.79.501-3.887 1.415l-.216.188-.329.302-.421-.146a3.178 3.178 0 00-1.037-.176A3.206 3.206 0 004.918 5.14c-.465.728-.52 1.42-.506 1.912l.03.498-.466.209a3.791 3.791 0 00-2.226 3.456A3.784 3.784 0 004.312 14.8l.188.058v1.542a5.282 5.282 0 01-4.25-5.185 5.299 5.299 0 012.667-4.598c.14-2.49 2.197-4.472 4.705-4.472.369 0 .736.045 1.1.134a7.558 7.558 0 014.79-1.715z" fill="#000" fill-rule="evenodd"/></svg>
